X:37
T:Christmas Day in the Morning
Z:Jack Campin, http://www.campin.me.uk/
S:Northumbrian Minstrelsy
M:6/8
L:1/8
K:G
  G2 G G2e|d2 c  B3 |                   \
                     A>Bc B2G|A>Bc  B3 |
  G2 G G2e|d2 c  B2                     \
                   d|edc  BAG|A3    G2||
d|B>AB G2d|B>AB  G2B|                   \
                     c>Bc A2B|c>Bc  A2c|
  B>AB G2d|B>AB HG2                     \
                   d|edc  BAG|A3    G2|]

